assets/Smiling face with halo/Flat/smiling_face_with_halo_flat.svg

<svg width="32" height="32" viewBox="0 0 32 32" fill="none" xmlns="http://www.w3.org/2000/svg">
<path d="M15.9999 1C12.6226 1 9.52568 1.2558 7.23818 1.6847C6.10676 1.89684 5.09728 2.16499 4.33502 2.5029C3.95906 2.66956 3.55909 2.88937 3.23033 3.19061C3.19426 3.22366 3.15722 3.25947 3.11987 3.298C3.12101 3.29685 3.12214 3.29571 3.12325 3.29456C3.41398 3.65046 4.68993 4.73761 4.68993 4.73761C4.68993 4.73761 7.95779 4.99999 8.4999 4.99999H8.57097C10.552 5.30835 13.1418 5.50004 15.9999 5.50004C18.9215 5.50004 21.5627 5.29974 23.5599 4.97927C24.2468 4.90512 26.9473 4.83955 26.9473 4.83955C26.9473 4.83955 28.4999 3.45654 28.4999 2.99999V2.97144C28.5935 3.03932 28.6839 3.11223 28.7695 3.19065C28.4407 2.88941 28.0407 2.66956 27.6648 2.5029C26.9025 2.16499 25.893 1.89684 24.7616 1.6847C22.4741 1.2558 19.3772 1 15.9999 1Z" fill="#1C5CD7"/>
<path d="M15.9989 29.9978C25.3333 29.9978 29.9978 23.7303 29.9978 15.9989C29.9978 8.26751 25.3333 2 15.9989 2C6.66443 2 2 8.26751 2 15.9989C2 23.7303 6.66443 29.9978 15.9989 29.9978Z" fill="#FFB02E"/>
<path d="M9.34896 13.4125C9.13971 13.6405 9.02964 13.9436 8.98156 14.1909C8.87614 14.733 8.3512 15.087 7.80907 14.9816C7.26694 14.8762 6.91291 14.3513 7.01833 13.8091C7.10696 13.3533 7.32826 12.6564 7.87551 12.0601C8.45269 11.4313 9.31564 11 10.4999 11C11.6955 11 12.562 11.4522 13.1357 12.082C13.6799 12.6794 13.9062 13.374 13.9852 13.8289C14.0797 14.373 13.7152 14.8908 13.171 14.9853C12.6269 15.0797 12.1092 14.7152 12.0147 14.1711C11.9804 13.9737 11.8753 13.6683 11.6572 13.4288C11.4685 13.2216 11.1417 13 10.4999 13C9.84698 13 9.52829 13.2171 9.34896 13.4125Z" fill="#402A32"/>
<path d="M20.3492 13.4125C20.14 13.6405 20.0299 13.9436 19.9818 14.1909C19.8764 14.733 19.3514 15.087 18.8093 14.9816C18.2672 14.8762 17.9132 14.3513 18.0186 13.8091C18.1072 13.3533 18.3285 12.6564 18.8758 12.0601C19.4529 11.4313 20.3159 11 21.5002 11C22.6957 11 23.5623 11.4522 24.1359 12.082C24.6802 12.6794 24.9064 13.374 24.9854 13.8289C25.0799 14.373 24.7154 14.8908 24.1713 14.9853C23.6271 15.0797 23.1094 14.7152 23.0149 14.1711C22.9807 13.9737 22.8756 13.6683 22.6574 13.4288C22.4687 13.2216 22.1419 13 21.5002 13C20.8472 13 20.5285 13.2171 20.3492 13.4125Z" fill="#402A32"/>
<path d="M13 19C13 18.4477 12.5523 18 12 18C11.4477 18 11 18.4477 11 19C11 19.8267 11.2398 21.0445 11.9885 22.0843C12.7739 23.1751 14.0741 24 16 24C17.9259 24 19.2261 23.1751 20.0115 22.0843C20.7602 21.0445 21 19.8267 21 19C21 18.4477 20.5523 18 20 18C19.4477 18 19 18.4477 19 19C19 19.5066 18.8398 20.2889 18.3885 20.9157C17.9739 21.4915 17.2741 22 16 22C14.7259 22 14.0261 21.4915 13.6115 20.9157C13.1602 20.2889 13 19.5066 13 19Z" fill="#402A32"/>
<path d="M3.12336 3.29456C3.85261 4.18731 7.59851 4.99999 8.5 4.99999H8.57107C10.5521 5.30835 13.1419 5.50004 16 5.50004C18.9216 5.50004 21.5628 5.29974 23.56 4.97927C24.9298 4.83139 28.5 3.91569 28.5 2.99999V2.97144C28.5936 3.03932 28.684 3.11223 28.7696 3.19065C29.0955 3.48929 29.5 4.01209 29.5 4.75004C29.5 5.48799 29.0955 6.01079 28.7696 6.30944C28.4408 6.61068 28.0408 6.83048 27.6649 6.99714C26.9026 7.33505 25.8931 7.6032 24.7617 7.81534C22.4742 8.24425 19.3773 8.50004 16 8.50004C12.6227 8.50004 9.52578 8.24425 7.23829 7.81534C6.10686 7.6032 5.09739 7.33505 4.33512 6.99714C3.95916 6.83048 3.5592 6.61068 3.23044 6.30944C2.90451 6.01079 2.5 5.48799 2.5 4.75004C2.5 4.09131 2.82233 3.60401 3.12336 3.29456Z" fill="#3F5FFF"/>
</svg>

<svg xmlns="http://www.w3.org/2000/svg" width="32" height="32" fill="none"><path fill="#1C5CD7" d="M16 1c-3.377 0-6.474.256-8.762.685-1.131.212-2.14.48-2.903.818-.376.167-.776.386-1.105.688a2.604 2.604 0 0 0-.107.104c.291.355 1.567 1.443 1.567 1.443S7.958 5 8.5 5h.071c1.981.308 4.57.5 7.429.5 2.922 0 5.563-.2 7.56-.52.687-.075 3.387-.14 3.387-.14S28.5 3.457 28.5 3v-.029c.093.068.184.141.27.22-.33-.302-.73-.521-1.105-.688-.762-.338-1.772-.606-2.903-.818C22.474 1.255 19.377 1 16 1Z"/><path fill="#FFB02E" d="M15.999 29.998c9.334 0 13.999-6.268 13.999-14 0-7.73-4.665-13.998-14-13.998C6.665 2 2 8.268 2 15.999c0 7.731 4.664 13.999 13.999 13.999Z"/><path fill="#402A32" d="M9.349 13.412c-.21.228-.32.532-.367.779a1 1 0 0 1-1.964-.382c.089-.456.31-1.153.858-1.749.577-.629 1.44-1.06 2.624-1.06 1.195 0 2.062.452 2.636 1.082.544.597.77 1.292.85 1.747a1 1 0 0 1-1.971.342 1.546 1.546 0 0 0-.358-.742C11.47 13.222 11.142 13 10.5 13c-.653 0-.972.217-1.151.412ZM20.35 13.412c-.21.228-.32.532-.368.779a1 1 0 0 1-1.963-.382c.088-.456.31-1.153.857-1.749.577-.629 1.44-1.06 2.624-1.06 1.196 0 2.062.452 2.636 1.082.544.597.77 1.292.85 1.747a1 1 0 0 1-1.971.342 1.545 1.545 0 0 0-.358-.742C22.47 13.222 22.142 13 21.5 13c-.653 0-.971.217-1.15.412ZM13 19a1 1 0 1 0-2 0c0 .827.24 2.044.989 3.084C12.774 23.175 14.073 24 16 24c1.926 0 3.226-.825 4.012-1.916.748-1.04.988-2.257.988-3.084a1 1 0 1 0-2 0c0 .507-.16 1.289-.611 1.916C17.974 21.49 17.274 22 16 22c-1.274 0-1.974-.509-2.389-1.084-.45-.627-.611-1.41-.611-1.916Z"/><path fill="#3F5FFF" d="M3.123 3.295C3.853 4.187 7.6 5 8.5 5h.071c1.981.308 4.57.5 7.429.5 2.922 0 5.563-.2 7.56-.52C24.93 4.83 28.5 3.915 28.5 3v-.029c.094.068.184.141.27.22.326.298.73.821.73 1.559s-.404 1.26-.73 1.56c-.33.3-.73.52-1.105.687-.762.338-1.772.606-2.903.818-2.288.43-5.385.685-8.762.685-3.377 0-6.474-.256-8.762-.685-1.131-.212-2.14-.48-2.903-.818-.376-.167-.776-.386-1.105-.688-.325-.298-.73-.821-.73-1.559 0-.659.322-1.146.623-1.455Z"/></svg>
